X:1
T:Title
%%score [ 1 2 3 4 ]
L:1/8
Q:1/4=192
M:2/2
K:G
V:1 treble nm="C"
V:2 treble nm="A"
V:3 treble-8 nm="T"
V:4 bass nm="B"
V:1
 z16 | G8 B4 c4 | d2 c2 B2 A2 B4 B4 | B4 A4 A4 ^G4 | A8 z8 | B8 B4 B4 | A4 B4 c4 B4 | A4 B4 G6 A2 | %8
w: |En voz a-|dieux, _ _ _ _ da-|mes, ces- sés voz|pleurs/|Pour le re-|tour d'u- ne prin-|ces- s'en Fran- *|
 B4 A2 G2 F2 E2 F4 | G8 z8 | z4 G4 B4 c4 | d2 c2 B2 A2 B4 B4 | B4 A4 A4 ^G4 | A8 z8 | B8 B4 B4 | %15
w: |ce./|C'est le jar-|din _ _ _ _ du|quel tant bel- les|fleurs,/|El- le ses|
 A4 B4 c4 B4 | A4 B4 G6 A2 | B4 A2 G2 F2 E2 F4 | G16 | z8 z4 F4 | G8 B8 | A4 d4 d6 c2 | %22
w: seurs ont eu pro-|pre nais- san- *||ce./|Ne|plou- rés|plus de sa beaul-|
 B4 A4 G2 AB c4- | c2 B2 B6 A2 A4 | B8 z8 | B8 B4 A4 | G6 FE D4 A4 | B4 d4 d4 ^c4 | d8 z4 B4 | %29
w: té l'ab- sen- * * *||ce,/|Dont vous pen-|sés _ _ _ es-|tre pri- vez voz|yeulx,/ Car|
 c6 B2 A4 A4 | B6 A2 G4 F4 | G6 F2 E8 | D16 | z4 D4 G4 G4 | A4 A4 B2 c2 d2 c2 | B2 A2 G2 F2 E4 A4 | %36
w: tost se- ra si|gran- de sa puis-|san- * *|ce,/|Que la ver-|rés y- ci _ _ _|_ _ _ _ _ et|
 F4 G2 A2 B2 G2 A4- | A2 G2 G6 FE F4 | G4 z2 D2 G4 G4 | A4 A4 B2 c2 d2 c2 | B2 A2 G2 F2 E4 A4 | %41
w: en tous _ _ _ _|_ _ _ _ _ _|lieux, que la ver-|rés y- ci _ _ _|_ _ _ _ _ et|
 F4 G2 A2 B2 G2 A4- | A2 G2 G6 FE F4 | G4 x12 || z16 | G8 B8- | B4 c4 d4 B4 | G4 c4 B4 B4 | %48
w: en tous _ _ _ _|_ _ _ _ _ _|lieux.||Hel- las,|_ com- ment, hel-|las, com- ment vou-|
 d6 d2 c4 B4- | B4 A6 ^G2 G2 FG | A8 z8 | B8 B4 B4 | A4 B4 c4 B4 | A4 G8 B4- | B4 A2 G2 F4 F4 | %55
w: lés vous que noz|_ yeulx/ _ _ _ _|_|Ces- sent leurs|pleurs lais- sant tel-|le prin- ces-|* * * * se?/|
 z8 G8 | B12 c4 | d4 B4 G4 c4 | B4 B4 d4 d4 | c4 B8 A4- | A2 ^G2 G2 FG A8 | z8 B8 | B4 B4 A4 B4 | %63
w: Las,|et com-|ment, las, et com-|ment luy di- sant|noz a- dieux/|_ _ _ _ _ _|Pour-|roient noz cueurs e-|
 c4 B4 A4 G4- | G4 B8 A2 G2 | F4 F4 z4 D4 | E4 G4 F4 F4 | G4 B4 A4 F4 | G2 F2 G2 A2 B4 A4 | %69
w: str'ex- emptz de tri-|* stes- * *|* se?/ El-|le s'en va, el-|le s'en va a|vec grand' al- le- gres- se,|
 G2 B2 A2 B4 d2 c4 | B16 | z4 c4 B4 A4 | G6 FE D4 A4 | B4 d4 d4 ^c4 | d8 z8 | z8 z4 G4 | %76
w: a vec grand' al- le- gres-|se/|Voir le jar-|din _ _ _ ou|crois- tront ses va-|leurs,/|Et|
 A4 c4 B2 c2 d2 B2 | c2 B2 B2 AG A8 | z4 D4 E4 G4 | F4 D4 G2 F2 G2 A2 | B4 G4 z8 | z16 | z8 z4 G4 | %83
w: pour con- fort, _ _ _|_ _ _ _ _ _|et pour con-|fort tant seu- le- ment nous|lais- se/||Les|
 F8 =F8 | E8 z4 D4 | D2 E2 F2 G2 A4 B4 | c4 B8 A2 G2 | F4 G6 F2 F2 EF | G2 D2 G2 F2 G2 A2 B4- | %89
w: yeulx en|pleurs et|les _ _ _ _ cueurs|en dou- * *|* leurs, _ _ _ _|_ tant seu- le- ment nous lais-|
 B4 G4 z8 | z16 | z8 z4 G4 | F8 =F8 | E8 z4 D4 | D2 E2 F2 G2 A4 B4 | c4 B8 A2 G2 | F4 G6 F2 F2 EF | %97
w: * se/||les|yeulx en|pleurs et|les _ _ _ _ cueurs|en dou- * *||
 G4 |] %98
w: leurs.|
V:2
 z16 | z4 D4 E4 E4 | G8 z4 D4 | G4 =F4 E4 E4 | C2 B,2 A,2 B,2 C2 D2 E2 F2 | G4 D4 G4 G4 | %6
w: |En voz a-|dieux, da-|mes, ces- sés voz|pleurs/ _ _ _ _ _ _ _|_ Pour le re-|
 F4 G4 E4 G4 | D4 D4 E4 D2 C2 | B,6 C2 D4 D4 | z4 D4 D4 E4 | G4 D4 E4 E4 | G8 z4 D4 | %12
w: tour d'u- ne prin-|ces- s'en Fran- * *|* * * ce./|C'est le jar-|din, c'est le jar|din du|
 G4 =F4 E4 E4 | C2 B,2 A,2 B,2 C2 D2 E2 F2 | G4 D4 G4 G4 | F4 G4 E4 G4 | D4 D4 E4 D2 C2 | %17
w: quel tant bel- les|fleurs,/ _ _ _ _ _ _ _|_ El- le ses|seurs ont eu pro-|pre nais- san- * *|
 B,6 C2 D4 D4 | z4 D4 E8 | G8 F4 D4 | E12 G4 | F8 z4 G4 | G4 F4 G4 G4 | G8 E4 E4 | E4 D4 D8 | %25
w: * * * ce./|Ne plou-|rés plus, ne|plou- rés|plus de|sa beaul- té l'ab-|sen- ce,/ Dont|vous pen- sés,|
 z4 E4 D4 D4 | B,8 z4 A,4 | G,4 G4 F4 E4 | D4 F4 G6 F2 | E4 E4 F6 E2 | D4 D4 D6 C2 | %31
w: dont vous pen-|sés es-|tre pri- vez voz|yeulx,/ Car tost se-|ra si gran- de|sa puis- san- *|
 B,2 A,2 B,6 A,2 A,2 G,A, | B,8 A,8 | z4 B,4 E6 D2 | E4 F4 G8 | z8 z4 E4 | D6 EF G4 F4 | D8 z4 D4 | %38
w: |* ce,/|Que la ver-|rés y- ci|et|en _ _ _ tous|lieux, que|
 B,4 B,4 C2 D2 E2 D2 | C2 B,2 A,4 D4 B,4- | B,2 C2 D6 ^C2 C2 B,C | D4 D4 G4 F4 | D4 x12 | x16 || %44
w: la ver- rés _ _ _|_ _ _ y- ci|_ _ _ _ _ _ _|* et en tous|lieux.||
 G,8 B,8- | B,4 C4 D6 CD | E8 z4 D4 | E4 E4 G4 G4 | G4 D4 E4 D4- | D2 E2 =F4 E4 E4- | %50
w: Hel- las,|_ com- ment, _ _|_ hel-|las, com- ment vou-|lés vous que noz|_ _ _ yeulx/ Ces-|
 E4 E4 E4 G4- | G2 F2 G2 FE D4 G4 | F6 EF G4 G,4 | D4 D4 G,6 A,2 | B,6 C2 D4 D4 | z4 D4 B,4 E4 | %56
w: * sent leurs pleurs|_ _ _ _ _ _ lais-|sant _ _ _ tel-|le prin- ces- *|* * * se?/|Las, et com-|
 D6 CD E8 | z4 D4 E4 E4 | G4 G4 G4 D4 | E4 D6 E2 =F4 | E4 E8 E4 | E4 G6 F2 G2 FE | D4 G4 F4 F4 | %63
w: ment, _ _ _|las, et com-|ment luy di- sant|noz a- * *|dieux/ Pour- roient|noz cueurs _ _ _ _|_ e- str'ex- emptz|
 G4 G,4 D8 | G,6 A,2 B,6 C2 | D8 z4 B,4 | A,4 G,4 D8 | z8 z4 D4- | D4 E4 G4 F4 | %69
w: de tri- stes-|se?/ _ _ _|_ El-|le s'en va,|el-|* le s'en va|
 z4 D4 E2 D2 E2 F2 | G4 G2 G2 G4 F4 | E6 DC D8 | z8 z4 D4 | D4 G4 F4 E4 | G6 F2 F4 E4 | F8 z4 E4 | %76
w: a vec grand' al- le-|gres- se/ Voir le jar-|din, _ _ _|voir|le jar- din ou|crois- tront ses va-|leurs,/ Et|
 F4 G4 G4 D4 | E4 G4 F8 | z16 | D4 B,2 B,2 B,2 D2 C4 | B,4 E4 D8- | D4 D8 C4 | z4 C4 B,8- | %83
w: pour con- fort, et|pour con- fort||tant seu- le- ment nous lais-|se/ Les yeulx|_ en pleurs,|les yeulx|
 B,4 A,2 G,2 A,4 A,4- | A,4 G,6 A,2 B,2 C2 | D4 D6 C2 B,2 A,2 | G,4 G,4 G,8 | A,4 B,4 D4 z2 D2 | %88
w: _ _ _ _ en|_ pleurs _ _ _|_ et _ _ _|_ les cueurs|en dou- leurs, tant|
 B,2 B,2 B,2 D2 C4 B,4 | z4 E4 D8- | D4 D8 C4 | z4 C4 B,8- | B,4 A,2 G,2 A,4 A,4- | %93
w: seu- le- ment nous lais- se/|Les yeulx|_ en pleurs,|les yeulx|_ _ _ _ en|
 A,4 G,6 A,2 B,2 C2 | D4 D6 C2 B,2 A,2 | G,4 G,4 G,8 | B,6 C2 D4 D4 | D4 |] %98
w: _ pleurs _ _ _|_ et _ _ _|_ les cueurs|en _ _ dou-|leurs.|
V:3
 G8 B4 c4 | d2 c2 B2 A2 G4 c4 | B4 e4 d4 B4 | d4 d4 c4 B4 | A4 e4 e4 c4 | d2 c2 B2 A2 G2 A2 B2 c2 | %6
w: En voz a-|dieux, _ _ _ _ en|voz a- dieux, da-|mes, ces- sés voz|pleurs/ Pour le re-|tour _ _ _ _ _ _ _|
 d8 z4 d4 | d4 B4 c4 B4 | G8 A8 | z4 G4 B4 c4 | d2 c2 B2 A2 G4 c4 | B4 e4 d4 B4 | d4 d4 c4 B4 | %13
w: _ d'u-|ne prin- ces- s'en|Fran- ce./|C'est le jar-|din, _ _ _ _ c'est|le jar- din du|quel tant bel- les|
 A4 e4 e4 c4 | d2 c2 B2 A2 G2 A2 B2 c2 | d8 z4 d4 | d4 B4 c4 B4 | G8 A8 | z4 G4 G4 c4 | B4 G4 A8 | %20
w: fleurs,/ El- le ses|seurs _ _ _ _ _ _ _|_ ont|eu pro- pre nais-|san- ce./|Ne plou- rés|plus, ne plou-|
 c8 B4 d4 | d4 A4 B2 A2 B2 c2 | d8 B4 e4- | e2 d2 d2 cB c8 | B4 B4 B4 A4 | G6 FE G2 F2 F2 EF | %26
w: rés plus de|sa beaul- té _ _ _|_ l'ab- sen-||ce,/ Dont vous pen-|sés _ _ _ _ _ _ _|
 G4 E4 B4 d4 | d4 B4 A8 | z4 d4 e6 d2 | c4 A8 d4- | d4 B4 B4 A4 | G12 F2 E2 | F2 D2 G6 FE F4 | %33
w: _ es- tre pri-|vez voz yeulx,/|Car tost se-|ra si gran-|* de sa puis-|san- * *||
 G8 z8 | z4 A4 d4 B4 | e4 d6 ^cB c4 | d2 =c2 B2 A2 G4 d4 | B12 A4 | G2 A2 B2 A2 G2 F2 G4- | %39
w: ce,/|Que la ver-|rés y- * * *|ci _ _ _ _ et|en tous|lieux, _ _ _ _ _ _|
 G2 F2 F2 EF G4 D4 | G4 G4 A4 A4 | B8 z4 d4 | B6 AG A4 A4 | G4 x12 || z16 | z16 | G8 B8- | %47
w: _ _ _ _ _ _ que|la ver- rés y-|ci et|en _ _ _ tous|lieux.|||Hel- las,|
 B4 c4 d2 c2 dcBA | B8 z4 B4 | d6 d2 c4 B4 | A4 c4 c4 c4 | B2 A2 G2 A2 B4 d4 | d4 d4 e8 | %53
w: _ com- ment _ _ _ _ _|_ vou-|lés vous que noz|yeulx/ Ces- sent leurs|pleurs, _ _ _ _ ces-|sent leurs pleurs|
 z4 B4 c4 B4 | G4 G4 A8 | G16 | z8 G8 | B12 c4 | d2 c2 dcBA B8 | z4 B4 d4 d4 | c4 B4 A4 c4 | %61
w: lais- sant tel-|le prin- ces-|se?/|Las,|et com-|ment _ _ _ _ _ _|luy di- sant|noz a- dieux/ Pour-|
 c4 c4 B2 A2 G2 A2 | B4 d4 d4 d4 | e8 z4 B4 | c4 B4 G4 G4 | A8 G8 | z4 B8 A4 | G4 d6 A2 B2 A2 | %68
w: roient noz cueurs, _ _ _|_ pour- roient noz|cueurs e-|str'ex- emptz de tri-|stes- se?/|El- le|s'en va a vec grand'|
 B2 d2 c4 B2 AG d4 | z16 | z4 G4 E4 F4 | G8 z8 | B8 B4 A4 | G6 FE D4 A4 | B4 d4 d4 ^c4 | d8 B8 | %76
w: al- le- gres- se/ _ _ _||Voir le jar-|din,|voir le jar-|din _ _ _ ou|crois- tront ses va-|leurs,/ Et|
 d4 e4 d4 B4 | A4 G4 d8 | D4 G2 F2 G2 A2 B4 | B4 z4 z8 | z4 c4 B8- | B4 A2 G2 A4 A4- | %82
w: pour con- fort, et|pour con- fort|tant seu- le- ment nous lais-|se/|Les yeulx|_ _ _ _ en|
 A4 G6 A2 B2 c2 | d8 z8 | z4 c4 B4 G4- | G4 F2 E2 D4 G4- | G2 A2 B8 c4 | d6 c2 B2 AG A4 | %88
w: _ pleurs _ _ _|_|et les cueurs|_ _ _ _ en|_ _ _ dou-|leurs, _ _ _ _ _|
 G4 E2 D2 E2 F2 G4 | G4 c4 B8- | B4 A2 G2 A4 A4- | A4 G6 A2 B2 c2 | d8 z8 | z4 c4 B4 G4- | %94
w: tant seu- le- ment nous lais-|se/ Les yeulx|_ _ _ _ en|_ pleurs _ _ _|_|et les cueurs|
 G4 F2 E2 D4 G4- | G2 A2 B8 c4 | d6 cB A8 | G4 |] %98
w: _ _ _ _ en|_ _ _ dou-|leurs. _ _ _|_|
V:4
 z16 | G,8 E,4 A,4 | G,8 z4 G,4 | G,4 D,4 E,4 E,4 | A,,8 A,8 | G,4 G,4 E,8 | z4 G,4 A,4 G,4 | %7
w: |En voz a-|dieux, da-|mes, ces- sés voz|pleurs/ Pour|le re- tour|d'u- ne prin-|
 F,4 G,4 E,8- | E,8 D,8 | z16 | G,8 E,4 A,4 | G,8 z4 G,4 | G,4 D,4 E,4 E,4 | A,,8 A,8 | %14
w: ces- s'en Fran-|* ce./||C'est le jar-|din du|quel tant bel- les|fleurs,/ El-|
 G,4 G,4 E,8 | z4 G,4 A,4 G,4 | F,4 G,4 E,8- | E,8 D,8 | z4 B,,4 C,8 | E,8 D,8 | z4 C,4 G,4 G,4 | %21
w: le ses seurs|ont eu pro-|pre nais- san-|* ce./|Ne plou-|rés plus,|ne plou- rés|
 D,8 z4 G,4 | G,4 D,4 E,2 D,2 E,2 F,2 | G,4 G,4 A,8 | E,4 G,4 G,4 F,4 | E,6 D,C, B,,4 D,4 | %26
w: plus de|sa beaul- té _ _ _|_ l'ab- sen-|ce,/ Dont vous pen-|sés _ _ _ es-|
 E,4 G,4 G,4 F,4 | G,8 z4 A,4 | B,6 A,2 G,4 E,4 | A,8 D,8 | G,12 D,4 | E,6 D,2 C,8 | %32
w: tre pri- vez voz|yeulx,/ Car|tost se- ra si|gran- de|sa puis-|san- * *|
 B,,4 G,,4 D,4 D,4 | E,2 F,2 G,2 F,2 E,2 D,2 C,2 B,,2 | A,,4 D,4 G,,4 G,,4 | G,4 G,4 A,4 A,4 | %36
w: ce,/ Que la ver-|rés _ _ _ _ _ _ _|_ y- ci, que|la ver- rés y-|
 B,4 G,4 E,4 F,4 | G,4 z2 G,,2 D,4 D,4 | E,2 F,2 G,2 F,2 E,2 D,2 C,2 B,,2 | A,,4 D,4 G,,8 | z16 | %41
w: ci et en tous|lieux, que la ver-|rés _ _ _ _ _ _ _|_ y- ci,||
 z4 G,4 E,4 F,4 | G,8 D,8 | G,,4 x12 || z16 | z8 G,8 | E,4 C,4 G,4 G,4 | E,4 A,4 G,8- | %48
w: y- ci et|en tous|lieux.||Hel-|las, com- ment, hel-|las, com- ment|
 G,8 z4 G,4 | G,4 D,4 E,4 E,4 | A,,8 E,8 | E,4 E,4 G,8 | z4 D,4 C,4 E,4 | F,4 G,4 E,8- | E,8 D,8 | %55
w: _ vou-|lés vous que noz|yeulx/ Ces-|sent leurs pleurs|lais- sant tel-|le prin- ces-|* se?/|
 z16 | z4 G,4 E,4 C,4 | G,4 G,4 E,4 A,4 | G,16 | z4 G,4 G,4 D,4 | E,4 E,4 A,,8 | E,8 E,4 E,4 | %62
w: |Las, et com-|ment, las, et com-|ment|luy di- sant|noz a- dieux/|Pour- roient noz|
 G,8 z4 D,4 | C,4 E,4 F,4 G,4 | E,16 | D,8 z8 | z8 z4 D,4 | E,4 G,4 D,8 | z8 z4 D,4 | %69
w: cueurs e-|str'ex- emptz de tri-|stes-|se?/|El-|le s'en va|a|
 G,4 F,2 G,4 B,2 A,4 | G,4 E,4 E,4 D,4 | C,6 B,,A,, G,,4 D,4 | E,4 G,4 G,4 F,4 | %73
w: vec grand' al- le- gres-|se/ Voir le jar-|din _ _ _ ou|crois- tront ses va-|
 G,2 A,2 B,2 A,G, A,4 z2 A,2 | G,4 B,4 A,4 A,4 | D,8 E,8 | D,4 C,4 G,8 | z8 z4 D,4 | %78
w: leurs, _ _ _ _ _ ou|crois- tront ses va-|leurs,/ Et|pour con- fort|tant|
 B,,2 B,,2 B,,2 D,2 C,4 B,,4 | z16 | z8 z4 G,4 | F,8 =F,8 | E,8 z4 E,4 | D,8 D,8 | %84
w: seu- le- ment nous lais- se/||Les|yeulx en|pleurs, les|yeulx en|
 C,8 G,,4 G,,2 A,,2 | B,,2 C,2 D,2 E,2 F,4 G,4 | E,8 E,8 | D,16 | z16 | z8 z4 G,4 | F,8 =F,8 | %91
w: pleurs et les _|_ _ _ _ _ cueurs|en dou-|leurs,||Les|yeulx en|
 E,8 z4 E,4 | D,8 D,8 | C,8 G,,4 G,,2 A,,2 | B,,2 C,2 D,2 E,2 F,4 G,4 | E,8 E,8 | D,16 | G,,4 |] %98
w: pleurs, les|yeulx en|pleurs et les _|_ _ _ _ _ cueurs|en dou-|leurs.|_|

